svg/shape/heart_half_fill.svg

<?xml version="1.0" encoding="UTF-8"?>
<svg width="24px" height="24px" viewBox="0 0 24 24" version="1.1" xmlns="http://www.w3.org/2000/svg" xmlns:xlink="http://www.w3.org/1999/xlink">
    <title>heart_half_fill</title>
    <g id="Icon" stroke="none" stroke-width="1" fill="none" fill-rule="evenodd">
        <g id="Shape" transform="translate(-528.000000, -48.000000)">
            <g id="heart_half_fill" transform="translate(528.000000, 48.000000)">
                <path d="M24,0 L24,24 L0,24 L0,0 L24,0 Z M12.5935,23.2578 L12.5819,23.2595 L12.5109,23.295 L12.4919,23.2987 L12.4767,23.295 L12.4057,23.2595 C12.3958,23.2564 12.387,23.259 12.3821,23.2649 L12.378,23.2758 L12.3609,23.7031 L12.3659,23.7235 L12.3769,23.7357 L12.4805,23.8097 L12.4953,23.8136 L12.5071,23.8097 L12.6107,23.7357 L12.6233,23.7197 L12.6267,23.7031 L12.6096,23.2758 C12.6076,23.2657 12.601,23.2593 12.5935,23.2578 Z M12.8584,23.1453 L12.8445,23.1473 L12.6598,23.2397 L12.6499,23.2499 L12.6472,23.2611 L12.6651,23.6906 L12.6699,23.7034 L12.6784,23.7105 L12.8793,23.8032 C12.8914,23.8069 12.9022,23.803 12.9078,23.7952 L12.9118,23.7812 L12.8777,23.1665 C12.8753,23.1546 12.8674,23.147 12.8584,23.1453 Z M12.143,23.1473 C12.1332,23.1424 12.1222,23.1453 12.1156,23.1526 L12.1099,23.1665 L12.0758,23.7812 C12.0751,23.7927 12.0828,23.8019 12.0926,23.8046 L12.1083,23.8032 L12.3092,23.7105 L12.3186,23.7024 L12.3225,23.6906 L12.3404,23.2611 L12.3372,23.2485 L12.3278,23.2397 L12.143,23.1473 Z" id="MingCute" fill-rule="nonzero"></path>
                <path d="M21.9979,10.3931 C22.0628,7.5009 20.5893,5.02216 18.4938,3.80126 C16.5339,2.65933 14.0719,2.65321 12.0000003,4.33849 C9.92814,2.65321 7.46612,2.65933 5.50615,3.80126 C3.41065,5.02216 1.9372,7.5009 2.00206,10.3931 C2.00226,10.4019 2.00247,10.4107 2.0027,10.4195 C2.09673,14.0177 4.90443,17.1936 9.68057,20.0308 C10.0123,20.2285 10.343,20.4289 10.6874,20.6039 C11.093,20.8099 11.5373,21 12.0000003,21 C12.4627,21 12.907,20.8099 13.3125,20.6039 C13.657,20.4289 13.9877,20.2285 14.3194,20.0308 C19.1073,17.1867 21.917,14.0022 21.9979,10.3931 Z M12,6.62245 C12.3057,6.62245 12.6114,6.50551 12.8427,6.27163 C14.3513,4.74623 16.0933,4.71734 17.487,5.52935 C18.9314,6.37091 20.0476,8.15748 19.9984,10.3483 C19.9421,12.8602 17.9589,15.5426 13.298,18.3113 C12.8922,18.553 12.4619,18.8718 12,19 L12,6.62245 Z" id="形状" fill="#09244B"></path>
            </g>
        </g>
    </g>
</svg>

<svg xmlns="http://www.w3.org/2000/svg" width="24" height="24"><g fill="none" fill-rule="evenodd"><path d="M24 0v24H0V0h24ZM12.594 23.258l-.012.002-.071.035-.02.004-.014-.004-.071-.036c-.01-.003-.019 0-.024.006l-.004.01-.017.428.005.02.01.013.104.074.015.004.012-.004.104-.074.012-.016.004-.017-.017-.427c-.002-.01-.009-.017-.016-.018Zm.264-.113-.014.002-.184.093-.01.01-.003.011.018.43.005.012.008.008.201.092c.012.004.023 0 .029-.008l.004-.014-.034-.614c-.003-.012-.01-.02-.02-.022Zm-.715.002a.023.023 0 0 0-.027.006l-.006.014-.034.614c0 .012.007.02.017.024l.015-.002.201-.093.01-.008.003-.011.018-.43-.003-.012-.01-.01-.184-.092Z"/><path fill="#09244B" d="M21.998 10.393c.065-2.892-1.409-5.37-3.504-6.592-1.96-1.142-4.422-1.148-6.494.537-2.072-1.685-4.534-1.679-6.494-.537-2.095 1.221-3.569 3.7-3.504 6.592v.026c.095 3.599 2.902 6.775 7.679 9.612.331.198.662.398 1.006.573.406.206.85.396 1.313.396.463 0 .907-.19 1.313-.396.344-.175.675-.375 1.006-.573 4.788-2.844 7.598-6.029 7.679-9.638ZM12 6.623c.306 0 .611-.117.843-.351 1.508-1.526 3.25-1.555 4.644-.743 1.444.842 2.56 2.628 2.511 4.82-.056 2.511-2.04 5.194-6.7 7.962-.406.242-.836.56-1.298.689V6.622Z"/></g></svg>
